X:1
T:James Gibb editions
T:Quand'io penso - Arcadelt
T:#
%%score [ 1 2 3 4 ]
L:1/8
Q:1/4=160
M:4/4
K:D
V:1 treble nm="Soprano" snm="S"
V:2 treble nm="Alto" snm="A"
V:3 treble-8 nm="Tenor" snm="T"
V:4 bass nm="Bass" snm="B"
V:1
"^Quand'io penso al martire""^Jacques Arcadelt\n(1505-68)" A8- | A8 | A8- | A4 A4 | B4 ^G4 | %5
w: Quan-||d'io|* pen-|s'al mar-|
 A4 A4 | z4 A4 | d8- | d4 c4 | A4 c4 |[M:4/4] B8 | A8- | A8 | A8- | A8 | A8 | z4 A4 | A4 A4 | B8- | %19
w: ti- re,|quan-|d'io|* pen-|s'al mar-|ti-|re,||a\-||mor,|Che|tu mi|dai|
 B4 A4 | G4 F4 | E4 E4 | z4 A4 | B2 c2 d2 B2 | c4 B4 | z4 A4 | B2 c2 d2 B2 | (c4 B4- | B2 A2 A4- | %29
w: * gra-|vo- s'e|for- te,|Cor-|ro per gi- r'a|mor- te,|cor-|ro per gi- r'a|mor\- *||
 A4 ^G4) | A8 | z4 A4 | A4 A4 | B8 | A8- | A4 F4 | G8- | G4 F4 | E4 F4 | D4 D4 | z4 A4 | A4 A4 | %42
w: |te,|Co-|sì spe-|ran-|do|* i|mie\-|* i|dan- ni|fi- ni-|re.|Ma poi|
 B4 ^G4 | A4 A4 | z4 A4 | d8- | d4 c4 | A4 c4 | B8 | A8 | A8 | z4 A4 | A4 A4 | A4 A4 | B8- | %55
w: ch'io giun-|g'al pas-|so,|ma|* poi|ch'io giun-|g'al|pas-|so,|Che|por- t'in|ques- to|mar|
 B4 A4 | G4 F4 | E4 E4 | z4 A4 | B2 c2 d2 B2 | c4 B4 | z4 A4 | B2 c2 d2 B2 | (c4 B4- | B4 A4- | %65
w: * pien|di tor-|men- to,|Tan-|to pia- cer ne|sen- to,|tan-|to pia- cer ne|sen\- *||
 A4 ^G4) | A8 | c8 | c4 c4 | d4 d4 | B8 | c8 | z8 | B8 | d4 d4 | c8 | B8- | B8 | B8 | z4 B4 | B8- | %81
w: |to,|che|l'al- ma|si rin-|for-|za,||on-|d'i- o|no'l|pas\-||so.|Co-|sì'l|
 B4 B4 | c4 d4 | B8 | c8 | z4 A4 | A4 A4 | A8 | A4 A4- | A4 G4 | F4 F4 | E8 | E8 | z4 E4- | E4 E4 | %95
w: * vi-|ver m'an-|ci-|de,|co-|sì la|mor-|te mi|* ri-|tor- n'in|vi-|ta.|O|* mi-|
 G8- | G4 G4 | G4 G4 | F8 | E8 | z4 E4- | E4 E4 | G8- | G4 G4 | G4 G4 | F8 | E8 | z4 A4 | A4 A4 | %109
w: se\-|* ria|in- fi-|ni-|ta,|O|* mi-|se\-|* ria|in- fi-|ni-|ta,|Che|l'un ap-|
 A8 | A4 A4- | A4 G4 | F4 F4 | E8 | E8 | z4 A4 | A4 A4 | A8 | A4[Q:1/4=158] A4- | %119
w: por-|t'e l'al\-|* tra|non re-|ci-|de,|che|l'un ap-|por-|t'e l'al\-|
[Q:1/4=154] A4[Q:1/4=150] G4 |[Q:1/4=147] F4[Q:1/4=143] F4 |[Q:1/4=138] E8 |[Q:1/4=135] E8 |] %123
w: * tra|non re-|ci-|de.|
V:2
 E8 | F8- | F4 E4 | E4 E4 | (F4 D4 | E6 D2 | C2 B,2) A,4 | z4 F4 | A8- | A4 A4 |[M:4/4] F4 G4 | %11
w: Quan-|d'io|* pen-|s'al mar-|ti\- *||* * re,|quan-|d'io|* pen-|s'al mar-|
 E8 | F8 | F8- | F8 | E8 | F8 | F4 F4 | G8- | G4 F4 | E4 D4 | C8 | C8 | E4 F2 G2 | A2 F2 G4 | %25
w: ti-|re,|a\-||mor,|Che|tu mi|dai|* gra-|vo- s'e|for-|te,|Cor- ro per|gi- r'a mor-|
 F2 F2 E2 F2 | D2 D2 A4 | G4 G4 | F4 D4 | E8 | C8- | C8 | z4 E4 | F4 G4 | E8 | (F2 E2 D2) C2 | %36
w: te, cor- ro per|gi- r'a mor-|te, per|gi- r'a|mor-|te,||Co-|sì spe-|ran-|do * * i|
 B,6 A,2 | G,4 B,4- | B,2 A,2 (A,4- | A,4 ^G,4) | A,4 E4 | E4 E4 | F4 D4 | (E6 D2 | C2 B,2) A,4 | %45
w: mie- i|dan- ni|* fi- ni\-||re. Ma|poi ch'io|giun- g'al|pas\- *|* * so,|
 z4 F4 | A8- | A4 A4 | F4 G4 | E8 | F8 | F8 | F4 F4 | F4 F4 | G8- | G4 F4 | E4 D4 | C8 | C8 | %59
w: ma|poi|* ch'io|giun- g'al|pas-|so,|Che|por- t'in|ques- to|mar|* pien|di tor-|men-|to,|
 E4 F2 G2 | A2 F2 G4 | F2 F2 E2 F2 | D2 D2 A4 | G4 G4 | F4 D4 | E8 | C8 | z4 A4 | A4 A4 | F4 F4 | %70
w: Tan- to pia-|cer ne sen-|to, tan- to pia-|cer ne sen-|to, pia-|cer ne|sen-|to,|che|l'al- ma|si rin-|
 G8 | A8 | G8- | G8 | B4 B4 | A8 | G8 | F8 | G8 | z4 G4 | G4 F4 | G4 (B4- | B4 A4- | A4 ^G4) | A8 | %85
w: for-|za,|On\-||d'i- o|no'l|pas-|so.|Co-|sì'l|vi- ver|m'an- ci\-|||de,|
 E8 | E4 E4 | E8 | F8 | E6 E2 | C4 D4 | B,8 | C8 | C8- | C4 C4 | E8- | E4 E4 | E4 E4 | D8 | %99
w: co-|sì la|mor-|te|mi ri-|tor- n'in|vi-|ta.|O|* mi-|se\-|* ria|in- fi-|ni-|
 C4 C4- | C4 C4 | B,8 | E8 | E8- | E4 E4 | D8 | C8 | C8 | C4 D4 | D4 C4 | D6 D2 | (C4- B,4- | %112
w: ta, O|* mi-|se-|ria|in\-|* fi-|ni-|ta,|Che|l'un ap-|por- t'e|l'al- tra|non *|
 B,2) A,2 (A,4- | A,4 ^G,4) | A,8 | C8 | C4 D4 | D4 C4 | D6 D2 | (C4 B,4- | B,2) A,2 (A,4- | %121
w: * re- ci\-||de,|che|l'un ap-|por- t'e|l'al- tra|non *|* re- ci\-|
 A,4 ^G,4) | A,8 |] %123
w: |de.|
V:3
 A8 | d8- | d4 c4 | A4 c4 | B8 | A4 A4 | e8- | e4 d4 | e4 (e4 | f4 e4- | %10
w: Quan-|d'io|* pen-|s'al mar-|ti-|re, quan-|d'io|* pen-|s'al mar\-||
[M:4/4][K:treble-8] e2 d2) (d4- | d4 c4) | d8 | d8- | d8 | c8 | d8 | d4 d4 | d8- | d4 d4 | %20
w: * * ti\-||re,|a\-||mor,|Che|tu mi|dai|* gra-|
 (B2 =c2) A4 | A8 | A8 | z8 | A4 B2 c2 | d2 B2 c4 | B4 f4 | e4 d4- | d2 (c2 B2) A2 | B8 | A4 A4 | %31
w: vo\- * s'e|for-|te,||Cor- ro per|gi- r'a mor-|te, cor-|ro per|* gi\- * r'a|mor-|te, Co-|
 A6 B2 | c4 c4 | z4 d4 | d4 c4 | d4 A4 | (e6 dc) | B8 | z4 A4 | d8- | d4 c4 | A4 c4 | B8 | A4 A4 | %44
w: sì spe-|ran- do|i|miei dan-|ni fi-|ni\- * *|re.|Ma|poi|* ch'io|giun- g'al|pas-|so, ma|
 e8- | e4 d4 | e4 e4 | (f4 e4- | e2 d2 d4- | d4 c4) | d8 | d8 | d4 d4 | d4 d4 | d8- | d4 d4 | %56
w: poi|* ch'io|giun- g'al|pas\- *|||so,|Che|por- t'in|ques- to|mar|* pien|
 (B2 =c2) A4 | A8 | A8 | z8 | A4 B2 c2 | d2 B2 c4 | B4 f4 | e4 d4- | d2 c2 (B2 A2) | B8 | A8 | %67
w: di * tor-|men-|to,||Tan- to pia-|cer ne sen-|to, tan-|to pia\-|* cer ne *|sen-|to,|
 z4 e4 | e4 e4 | d4 d4 | e8 | e8 | z4 B4- | B4 (d4- | d2 c2 d2 e2 | f4) e4- | e4 (^d2 c2) | ^d8 | %78
w: che|l'al- ma|si rin-|for-|za,|On\-|* d'i\-||* o|* no'l *|pas-|
 e8 | z4 e4 | e4 ^d4 | e4 g4 | (f4 d4 | e8 | A8 | c8 | c4 c4 | c4 c4 | d6 d2 | c4 (B4- | %90
w: so.|Co-|sì'l vi-|ver m'an-|ci\- *||de,|co-|sì la|mor- te|mi ri-|tor- n'in|
 B2 A2) A4- | A4 ^G4) | A8 | A8- | A4 A4 | B8- | B4 B4 | =c4 c4 | A8 | A4 A4- | A4 A4 | (G6 A2) | %102
w: * * vi\-||ta.|O|* mi-|se\-|* ria|in- fi-|ni-|ta, O|* mi-|se\- *|
 B8 | =c8- | c4 =c4 | A8 | A8 | z4 e4 | f4 f4 | e8 | f8 | e6 e2 | c4 d4 | B8 | c8 | z4 e4 | f4 f4 | %117
w: ria|in\-|* fi-|ni-|ta,|Che|l'un ap-|por-|t'e|l'al- tra|non re-|ci-|de,|che|l'un ap-|
 e8 | f8 | e6 e2 | c4 d4 | B8 | c8 |] %123
w: por-|t'e|l'al- tra|non re-|ci-|de.|
V:4
 z8 | z8 | z8 | z4 A,4 | D8- | D4 C4 | A,4 C4 | B,8 | A,8 | z4 A,4 |[M:4/4] B,4 G,4 | A,8 | D,8 | %13
w: |||Quan-|d'io|* pen-|s'al mar-|ti-|re,|pen-|s'al mar-|ti-|re,|
 D,8 | A,8- | A,8 | D,8 | D,4 D,4 | G,8- | G,4 D,4 | (E,2 =C,2) D,4 | A,,8 | A,,8 | z8 | z4 E,4 | %25
w: a-|mor,||Che|tu mi|dai|* gra-|vo\- * s'e|for-|te,||Cor-|
 F,2 G,2 A,2 F,2 | G,4 D,2 D,2 | E,2 F,2 G,2 E,2 | (F,8 | E,8) | A,,8- | A,,8 | z4 A,4 | A,4 G,4 | %34
w: ro per gi- r'a|mor- te, cor-|ro per gi- r'a|mor\-||te,||Co-|sì spe-|
 A,8 | D,4 D,4 | E,8- | E,4 D,4 | C,4 D,4 | B,,8 | A,,8 | z4 A,4 | D8- | D4 C4 | A,4 C4 | B,8 | %46
w: ran-|do i|miei|* dan-|ni fi-|ni-|re.|Ma|poi|* ch'io|giun- g'al|pas-|
 A,8 | z4 A,4 | B,4 G,4 | A,8 | D,8 | D,8 | D,4 D,4 | D,4 D,4 | G,8- | G,4 D,4 | (E,2 =C,2) D,4 | %57
w: so,|ch'io|giun- g'al|pas-|so,|Che|por- t'in|ques- to|mar|* pien|di * tor-|
 A,,8 | A,,8 | z8 | z4 E,4 | F,2 G,2 A,2 F,2 | G,4 D,2 D,2 | E,2 F,2 G,2 E,2 | F,8 | (E,8- | %66
w: men-|to,||Tan-|to pia- cer ne|sen- to, tan-|to pia- cer ne|sen-|to,|
 A,,8) | z4 A,4 | A,4 A,4 | B,4 B,4 | E,8 | A,8 | E,8 | G,8- | G,4 G,4 | A,8 | B,8- | B,8 | E,8- | %79
w: |che|l'al- ma|si rin-|for-|za,|On-|d'i\-|* o|no'l|pas\-||so.|
 E,8 | z8 | z8 | z8 | z8 | z4 A,4- | A,4 A,4 | A,8 | A,8 | D,8 | E,6 E,2 | F,4 D,4 | E,8 | A,,8 | %93
w: |||||co\-|* sì|la|mor-|te|mi ri-|tor- n'in|vi-|ta.|
 A,,8- | A,,4 A,,4 | E,8- | E,4 E,4 | =C,4 C,4 | D,8 | A,,4 A,,4- | A,,4 A,,4 | E,8- | E,4 E,4 | %103
w: O|* mi-|se\-|* ria|in- fi-|ni-|ta, O|* mi-|se\-|* ria|
 =C,8- | C,4 =C,4 | D,8 | A,,8 | A,8 | F,4 D,4 | A,8 | D,8 | E,6 E,2 | F,4 D,4 | E,8 | A,,8 | A,8 | %116
w: in\-|* fi-|ni-|ta,|Che|l'un ap-|por-|t'e|l'a- tra|non re-|ci-|de,|che|
 F,4 D,4 | A,8 | D,8 | E,6 E,2 | F,4 D,4 | E,8 | A,,8 |] %123
w: l'un ap-|por-|t'e|l'al- tra|non re-|ci-|de.|

